src/img/article/сustom_checkboxes_and_radio_buttons/input.svg

<?xml version="1.0" encoding="utf-8"?>

<!-- Uploaded to: SVG Repo, www.svgrepo.com, Generator: SVG Repo Mixer Tools -->
<svg width="800px" height="800px" viewBox="0 0 24 24" fill="none" xmlns="http://www.w3.org/2000/svg">
<g id="Interface / Checkbox_Unchecked">
<path id="Vector" d="M4 7.2002V16.8002C4 17.9203 4 18.4801 4.21799 18.9079C4.40973 19.2842 4.71547 19.5905 5.0918 19.7822C5.5192 20 6.07899 20 7.19691 20H16.8031C17.921 20 18.48 20 18.9074 19.7822C19.2837 19.5905 19.5905 19.2842 19.7822 18.9079C20 18.4805 20 17.9215 20 16.8036V7.19691C20 6.07899 20 5.5192 19.7822 5.0918C19.5905 4.71547 19.2837 4.40973 18.9074 4.21799C18.4796 4 17.9203 4 16.8002 4H7.2002C6.08009 4 5.51962 4 5.0918 4.21799C4.71547 4.40973 4.40973 4.71547 4.21799 5.0918C4 5.51962 4 6.08009 4 7.2002Z" stroke="#2D3440" stroke-width="2" stroke-linecap="round" stroke-linejoin="round"/>
</g>
</svg>

<svg xmlns="http://www.w3.org/2000/svg" width="800" height="800" fill="none" viewBox="0 0 24 24"><path stroke="#2D3440" stroke-linecap="round" stroke-linejoin="round" stroke-width="2" d="M4 7.2v9.6c0 1.1 0 1.7.2 2.1.2.4.5.7.9.9.4.2 1 .2 2.1.2h9.6c1.1 0 1.7 0 2.1-.2.4-.2.7-.5.9-.9.2-.4.2-1 .2-2.1V7.2c0-1.1 0-1.7-.2-2.1a2 2 0 0 0-.9-.9c-.4-.2-1-.2-2.1-.2H7.2c-1.1 0-1.7 0-2.1.2a2 2 0 0 0-.9.9C4 5.5 4 6 4 7.2Z"/></svg>
